packages/icons/general/WarningTriangle.svg

<svg width="20" height="20" viewBox="0 0 20 20" xmlns="http://www.w3.org/2000/svg">
<g>
        <path
            d="M8.55695 3.59847C9.19845 2.48736 10.8022 2.48736 11.4437 3.59847L17.2456 13.6476C17.8871 14.7587 17.0852 16.1476 15.8022 16.1476H4.19845C2.91545 16.1476 2.11357 14.7587 2.75507 13.6476L8.55695 3.59847Z"
            fill="#FFB100"
        />
        <path
            fill-rule="evenodd"
            clip-rule="evenodd"
            d="M10.0005 6.33447C10.4147 6.33447 10.7505 6.67026 10.7505 7.08447L10.7505 11.6009C10.7505 12.0152 10.4147 12.3509 10.0005 12.3509C9.58627 12.3509 9.25049 12.0152 9.25049 11.6009L9.25049 7.08447C9.25049 6.67026 9.58627 6.33447 10.0005 6.33447Z"
            fill="white"
        />
        <path
            fill-rule="evenodd"
            clip-rule="evenodd"
            d="M10.0005 13.2114C10.4147 13.2114 10.7505 13.5472 10.7505 13.9614L10.7505 13.9806C10.7505 14.3948 10.4147 14.7306 10.0005 14.7306C9.58627 14.7306 9.25049 14.3948 9.25049 13.9806L9.25049 13.9614C9.25049 13.5472 9.58627 13.2114 10.0005 13.2114Z"
            fill="white"
        />
    </g>
</svg>

<svg xmlns="http://www.w3.org/2000/svg" width="20" height="20">
    <path fill="#FFB100" d="M8.557 3.598a1.667 1.667 0 0 1 2.887 0l5.802 10.05a1.667 1.667 0 0 1-1.444 2.5H4.198a1.667 1.667 0 0 1-1.443-2.5l5.802-10.05Z"/>
    <path fill="#fff" fill-rule="evenodd" d="M10 6.334a.75.75 0 0 1 .75.75v4.517a.75.75 0 1 1-1.5 0V7.084a.75.75 0 0 1 .75-.75Zm0 6.877a.75.75 0 0 1 .75.75v.02a.75.75 0 0 1-1.5 0v-.02a.75.75 0 0 1 .75-.75Z" clip-rule="evenodd"/>
</svg>
